src/pos-icons/toolbox.svg

<svg height="24" viewBox="0 0 24 24" width="24" xmlns="http://www.w3.org/2000/svg"><path d="m9 5v1h6v-1zm13 13c0 .53-.21 1-.6 1.41-.4.4-.85.59-1.4.59h-16c-.55 0-1-.19-1.4-.59-.39-.41-.6-.88-.6-1.41v-4h5v1h2v-1h6v1h2v-1h5zm-17.5-10.78c.34-.81.95-1.22 1.83-1.22h.67v-1c0-.55.18-1 .57-1.41.39-.39.87-.59 1.43-.59h6c.56 0 1.04.2 1.43.59.39.41.57.86.57 1.41v1h.67c.88 0 1.49.41 1.83 1.22l2.08 4.78h-4.58v-1h-2v1h-6v-1h-2v1h-4.58z"/></svg>

<?xml version="1.0" encoding="UTF-8"?><!DOCTYPE svg PUBLIC "-//W3C//DTD SVG 1.1//EN" "http://www.w3.org/Graphics/SVG/1.1/DTD/svg11.dtd"><svg xmlns="http://www.w3.org/2000/svg" xmlns:xlink="http://www.w3.org/1999/xlink" version="1.1" id="mdi-toolbox" width="24" height="24" viewBox="0 0 24 24"><path d="M9,5V6H15V5H9M22,18C22,18.53 21.79,19 21.4,19.41C21,19.81 20.55,20 20,20H4C3.45,20 3,19.81 2.6,19.41C2.21,19 2,18.53 2,18V14H7V15H9V14H15V15H17V14H22V18M4.5,7.22C4.84,6.41 5.45,6 6.33,6H7V5C7,4.45 7.18,4 7.57,3.59C7.96,3.2 8.44,3 9,3H15C15.56,3 16.04,3.2 16.43,3.59C16.82,4 17,4.45 17,5V6H17.67C18.55,6 19.16,6.41 19.5,7.22L21.58,12H17V11H15V12H9V11H7V12H2.42L4.5,7.22Z" /></svg>
